build/redact/BorderClearOutline.svg

<svg xmlns="http://www.w3.org/2000/svg" fill="none" viewBox="0 0 24 24" focusable="false"><path d="M0 0H24V24H0z" transform="matrix(1 0 0 -1 0 24)"/><path fill="#74767B" fill-rule="evenodd" d="M7.6516 5.3C7.46008 5.3 7.27474 5.32276 7.0978 5.36541C6.74867 5.44959 6.39738 5.23492 6.31317 4.88594C6.30081 4.83473 6.2949 4.78346 6.2949 4.733C6.2949 4.43965 6.49496 4.17347 6.79286 4.10166C7.0689 4.0351 7.35658 4 7.6516 4L8.30892 4C8.66806 4 8.9592 4.29101 8.9592 4.65C8.9592 5.00898 8.66806 5.3 8.30892 5.3L7.6516 5.3ZM10.6924 4.65C10.6924 4.29101 10.9835 4 11.3427 4L12.6573 4C13.0165 4 13.3076 4.29101 13.3076 4.65C13.3076 5.00898 13.0165 5.3 12.6573 5.3L11.3427 5.3C10.9835 5.3 10.6924 5.00898 10.6924 4.65ZM15.0408 4.65C15.0408 4.29101 15.3319 4 15.6911 4L16.3484 4C16.6434 4 16.9311 4.0351 17.2071 4.10166C17.505 4.17347 17.7051 4.43965 17.7051 4.733C17.7051 4.78346 17.6992 4.83473 17.6868 4.88594C17.6026 5.23492 17.2513 5.44959 16.9022 5.36541C16.7253 5.32276 16.5399 5.3 16.3484 5.3L15.6911 5.3C15.3319 5.3 15.0408 5.00898 15.0408 4.65ZM4.88633 6.31216C5.18422 6.38398 5.38429 6.65015 5.38429 6.94351C5.38429 6.99397 5.37837 7.04523 5.36601 7.09645C5.32334 7.27331 5.30057 7.45856 5.30057 7.65L5.30057 8.3072C5.30057 8.66619 5.00943 8.9572 4.65028 8.9572C4.29114 8.9572 4 8.66619 4 8.3072L4 7.65C4 7.35511 4.03512 7.06756 4.1017 6.79163C4.18591 6.44265 4.5372 6.22799 4.88633 6.31216ZM19.1137 6.31216C19.4628 6.22799 19.8141 6.44265 19.8983 6.79163C19.9649 7.06755 20 7.3551 20 7.65L20 8.3072C20 8.66619 19.7089 8.9572 19.3497 8.9572C18.9906 8.9572 18.6994 8.66619 18.6994 8.3072L18.6994 7.65C18.6994 7.45856 18.6767 7.27331 18.634 7.09645C18.6216 7.04523 18.6157 6.99397 18.6157 6.94351C18.6157 6.65015 18.8158 6.38398 19.1137 6.31216ZM11.9949 9.57151C11.6358 9.57151 11.3446 9.28049 11.3446 8.92151L11.3446 7.72639C11.3446 7.36741 11.6358 7.07639 11.9949 7.07639C12.354 7.07639 12.6452 7.3674 12.6452 7.72639L12.6452 8.92151C12.6452 9.28049 12.3541 9.57151 11.9949 9.57151ZM19.3497 10.6905C19.7089 10.6905 20 10.9815 20 11.3405L20 12.6549C20 13.0138 19.7089 13.3049 19.3497 13.3049C18.9906 13.3049 18.6994 13.0138 18.6994 12.6549L18.6994 11.3405C18.6994 10.9815 18.9906 10.6905 19.3497 10.6905ZM4.65028 10.6905C5.00943 10.6905 5.30057 10.9815 5.30057 11.3405L5.30057 12.6549C5.30057 13.0138 5.00943 13.3049 4.65028 13.3049C4.29114 13.3049 4 13.0138 4 12.6549L4 11.3405C4 10.9815 4.29114 10.6905 4.65028 10.6905ZM7.72155 11.3479L8.91719 11.3479C9.27633 11.3479 9.56748 11.6389 9.56748 11.9979C9.56748 12.3569 9.27633 12.6479 8.91719 12.6479L7.72155 12.6479C7.36241 12.6479 7.07127 12.3569 7.07127 11.9979C7.07127 11.6389 7.36241 11.3479 7.72155 11.3479ZM15.0724 11.3479L16.2681 11.3479C16.6272 11.3479 16.9184 11.6389 16.9184 11.9979C16.9184 12.3569 16.6272 12.6479 16.2681 12.6479L15.0724 12.6479C14.7133 12.6479 14.4221 12.3569 14.4221 11.9979C14.4221 11.6389 14.7133 11.3479 15.0724 11.3479ZM11.9949 16.9192C11.6358 16.9192 11.3446 16.6282 11.3446 16.2692L11.3446 15.074C11.3446 14.7151 11.6358 14.424 11.9949 14.424C12.354 14.424 12.6452 14.7151 12.6452 15.074L12.6452 16.2692C12.6452 16.6282 12.3541 16.9192 11.9949 16.9192ZM19.3497 15.0381C19.7089 15.0381 20 15.3291 20 15.6881L20 16.3453C20 16.6402 19.9649 16.9278 19.8983 17.2037C19.8141 17.5527 19.4628 17.7673 19.1137 17.6832C18.8158 17.6113 18.6157 17.3452 18.6157 17.0518C18.6157 17.0013 18.6216 16.9501 18.634 16.8989C18.6767 16.722 18.6994 16.5367 18.6994 16.3453L18.6994 15.6881C18.6994 15.3291 18.9906 15.0381 19.3497 15.0381ZM4.65028 15.0381C5.00943 15.0381 5.30057 15.3291 5.30057 15.6881L5.30057 16.3453C5.30057 16.5367 5.32334 16.722 5.36601 16.8989C5.37837 16.9501 5.38429 17.0013 5.38429 17.0518C5.38429 17.3452 5.18422 17.6113 4.88633 17.6832C4.5372 17.7673 4.18591 17.5527 4.1017 17.2037C4.03512 16.9278 4 16.6402 4 16.3453L4 15.6881C4 15.3291 4.29114 15.0381 4.65028 15.0381ZM6.31317 19.1094C6.39738 18.7604 6.74867 18.5457 7.0978 18.6299C7.27474 18.6726 7.46008 18.6953 7.6516 18.6953L8.30892 18.6953C8.66806 18.6953 8.9592 18.9863 8.9592 19.3453C8.9592 19.7043 8.66806 19.9953 8.30892 19.9953L7.6516 19.9953C7.35658 19.9953 7.0689 19.9602 6.79285 19.8937C6.49496 19.8218 6.29489 19.5557 6.29489 19.2623C6.29489 19.2118 6.30081 19.1606 6.31317 19.1094ZM17.6868 19.1094C17.6992 19.1606 17.7051 19.2118 17.7051 19.2623C17.7051 19.5557 17.505 19.8218 17.2071 19.8937C16.9311 19.9602 16.6434 19.9953 16.3484 19.9953L15.6911 19.9953C15.3319 19.9953 15.0408 19.7043 15.0408 19.3453C15.0408 18.9863 15.3319 18.6953 15.6911 18.6953L16.3484 18.6953C16.5399 18.6953 16.7253 18.6726 16.9022 18.6299C17.2513 18.5457 17.6026 18.7604 17.6868 19.1094ZM10.6924 19.3453C10.6924 18.9863 10.9835 18.6953 11.3427 18.6953L12.6573 18.6953C13.0165 18.6953 13.3076 18.9863 13.3076 19.3453C13.3076 19.7043 13.0165 19.9953 12.6573 19.9953L11.3427 19.9953C10.9835 19.9953 10.6924 19.7043 10.6924 19.3453Z"/></svg>

<svg xmlns="http://www.w3.org/2000/svg" fill="none" viewBox="0 0 24 24" focusable="false"><path fill="#74767B" fill-rule="evenodd" d="M7.65 5.3c-.2 0-.38.02-.56.06-.35.08-.7-.13-.78-.48a.641.641 0 0 1 .48-.78c.27-.07.56-.1.86-.1h.65c.36 0 .65.29.65.64 0 .36-.29.66-.65.66zm3.04-.66c0-.35.29-.64.65-.64h1.31c.36 0 .65.29.65.64 0 .36-.29.66-.65.66h-1.31c-.36 0-.65-.3-.65-.66m4.35 0c0-.35.29-.64.65-.64h.65c.3 0 .59.03.86.1a.64.64 0 0 1 .48.78c-.08.35-.43.56-.78.48a2.5 2.5 0 0 0-.56-.06h-.65c-.36 0-.65-.3-.65-.66M4.88 6.31c.3.07.5.34.5.63 0 .05-.01.1-.02.15-.04.18-.06.36-.06.55v.66c0 .36-.3.65-.65.65-.36 0-.65-.29-.65-.65v-.66c0-.29.03-.58.1-.85.08-.35.43-.57.78-.48m14.23 0c.35-.09.7.13.78.48.07.27.11.56.11.85v.66a.655.655 0 0 1-1.31 0v-.66c0-.19-.02-.37-.06-.55-.01-.05-.02-.1-.02-.15 0-.29.2-.56.5-.63m-7.12 3.26c-.36 0-.65-.29-.65-.65v-1.2c0-.36.29-.65.65-.65s.65.29.65.65v1.2c0 .36-.29.65-.65.65m7.35 1.12c.36 0 .66.29.66.65v1.31a.655.655 0 0 1-1.31 0v-1.31c0-.36.3-.65.65-.65m-14.69 0c.35 0 .65.29.65.65v1.31c0 .36-.3.65-.65.65-.36 0-.65-.29-.65-.65v-1.31c0-.36.29-.65.65-.65m3.07.65h1.19c.36 0 .65.29.65.65s-.29.65-.65.65H7.72c-.36 0-.65-.29-.65-.65s.29-.65.65-.65m7.35 0h1.19c.36 0 .65.29.65.65s-.29.65-.65.65h-1.19c-.36 0-.65-.29-.65-.65s.29-.65.65-.65m-3.08 5.57c-.36 0-.65-.29-.65-.65v-1.19c0-.36.29-.65.65-.65s.65.29.65.65v1.19c0 .36-.29.65-.65.65m7.35-1.88c.36 0 .66.29.66.65v.66c0 .3-.04.58-.11.86a.65.65 0 0 1-1.28-.15c0-.05.01-.1.02-.16.04-.17.06-.36.06-.55v-.66c0-.36.3-.65.65-.65m-14.69 0c.35 0 .65.29.65.65v.66c0 .19.02.38.06.55.01.06.02.11.02.16a.65.65 0 0 1-1.28.15c-.07-.28-.1-.56-.1-.86v-.66c0-.36.29-.65.65-.65m1.66 4.07c.08-.34.43-.56.78-.48.18.05.36.07.56.07h.65c.36 0 .65.29.65.65s-.29.65-.65.65h-.65c-.3 0-.59-.03-.86-.1a.65.65 0 0 1-.5-.63c0-.05.01-.1.02-.16m11.37 0c.01.06.02.11.02.16 0 .29-.2.56-.5.63-.27.07-.56.1-.86.1h-.65c-.36 0-.65-.29-.65-.65s.29-.65.65-.65h.65c.2 0 .38-.02.56-.07.35-.08.7.14.78.48m-6.99.24c0-.36.29-.65.65-.65h1.31c.36 0 .65.29.65.65s-.29.65-.65.65h-1.31c-.36 0-.65-.29-.65-.65"/></svg>
